editor/icons/Vector4i.svg

<svg height="12" viewBox="0 0 16 12" width="16" xmlns="http://www.w3.org/2000/svg"><path d="m7 3v5h3v3h2v-9h-2v4h-1v-3zm-6 1v6h2c1.657 0 3-1.343 3-3v-3h-2v3c0 .552-.448 1-1 1v-4z" fill="#f066bd"/><path d="m7 3v5h3v3h2v-9h-2v4h-1v-3z" fill="#fff" fill-opacity=".39216"/><path d="m13 2v2h2v-2zm0 4v4h2v-4z" fill="#5abbef"/></svg>

<svg height="12" viewBox="0 0 16 12" width="16" xmlns="http://www.w3.org/2000/svg"><path d="M7 3v5h3v3h2V2h-2v4H9V3zM1 4v6h2a3 3 0 0 0 3-3V4H4v3a1 1 0 0 1-1 1V4z" fill="#f066bd"/><path d="M7 3v5h3v3h2V2h-2v4H9V3z" fill="#fff" fill-opacity=".4"/><path d="M13 2v2h2V2zm0 4v4h2V6z" fill="#5abbef"/></svg>
